assets/icons/custom/custom77.svg

<?xml version="1.0"?><svg xmlns="http://www.w3.org/2000/svg" width="100" height="100" viewBox="0 0 100 100"><g fill="#fff"><path d="m32 42h4c0.6 0 1-0.4 1-1v-1.5c0-7.6 5.7-13.5 13-13.5s13 5.9 13 13.5v1.5c0 0.6 0.4 1 1 1h4c0.6 0 1-0.4 1-1v-1.5c0-10.9-8.3-19.5-19-19.5s-19 8.6-19 19.5v1.5c0 0.6 0.4 1 1 1z m38 6h-39c-3.3 0-6 2.7-6 6v20c0 3.3 2.7 6 6 6h39c3.3 0 6-2.7 6-6v-20c0-3.3-2.7-6-6-6z m-14.7 16.1c-0.9 1.4-1.4 3-1 4.6l0.7 3c0.2 1.1-0.6 2.3-1.8 2.3h-6.4c-1.2 0-2-1.2-1.8-2.3l0.7-3.1c0.4-1.6-0.1-3.2-1-4.5-0.9-1.3-1.3-2.9-1-4.5 0.5-2.4 2.5-4.3 5-4.8 4.1-0.8 7.6 2.2 7.6 5.9 0 1.3-0.4 2.4-1 3.4z"></path></g></svg>

<svg xmlns="http://www.w3.org/2000/svg" x="0px" y="0px"
	 width="100px" height="100px" viewBox="0 0 100 100" enable-background="new 0 0 100 100" xml:space="preserve">
<g>
	<path fill="#FFFFFF" d="M32,42h4c0.6,0,1-0.4,1-1v-1.5C37,31.9,42.7,26,50,26s13,5.9,13,13.5V41c0,0.6,0.4,1,1,1h4c0.6,0,1-0.4,1-1
		v-1.5C69,28.6,60.7,20,50,20s-19,8.6-19,19.5V41C31,41.6,31.4,42,32,42z"/>
	<path fill="#FFFFFF" d="M70,48H31c-3.3,0-6,2.7-6,6v20c0,3.3,2.7,6,6,6h39c3.3,0,6-2.7,6-6V54C76,50.7,73.3,48,70,48z M55.3,64.1
		c-0.899,1.4-1.399,3-1,4.601l0.7,3c0.2,1.1-0.6,2.3-1.8,2.3h-6.4c-1.2,0-2-1.2-1.8-2.3l0.7-3.101c0.4-1.6-0.1-3.199-1-4.5
		c-0.9-1.3-1.3-2.899-1-4.5c0.5-2.399,2.5-4.3,5-4.8c4.1-0.8,7.6,2.2,7.6,5.9C56.3,62,55.9,63.1,55.3,64.1z"/>
</g>
</svg>
